X:1
T:My days are gone like a shadow - Blow
T:James Gibb editions
T:#
%%score [ 1 2 3 4 ]
L:1/8
Q:1/4=90
M:4/4
K:Ab
V:1 treble nm="Soprano" snm="S"
V:2 treble nm="Alto" snm="A"
V:3 treble-8 nm="Tenor" snm="T"
V:4 bass nm="Bass" snm="B"
V:1
"^My days are gone like a shadow""^John Blow\n(1649-1708)""^Psalm 102:11-13" z8 | z2 F2 A2 c2 | %2
w: |My days are|
 e4 d2 c2 | B2 B4 B2- | B2 A2 G2 G2 | G2 A3 A B2- | BB c2 c2 c2 | =d3 d =e2 f2 | (A2 G>F) F4 | %9
w: gone like a|sha- dow, like|* a sha- dow,|and I am wi\-|* thered like grass, and|I am with- ered|like * * grass.|
 z4 z2 A2 | d3 d d4- | d2 B2 e4- | e2 cc f2 f2 | e2 d2 c2 d2 | c2 c2 z2 B2 | d3 d =d2 dd | %16
w: But|Thou O Lord,|* O Lord,|* shalt en- dure, Thou|shalt en- dure for|ev- er, But|Thou O Lord, shalt en-|
 e2 =ee e2 f2 | (f=e)ef (fe)ef | (AG) G2 z2 (A2- | AB)cd e2 ee | d2 c2 B2 A2 | B2 B2 A4 | B6 c2 | %23
w: dure, shalt en- dure for|ev\- * er, for ev\- * er, for|ev\- * er, and|* * Thy re- mem- brance thro'-|out all ge- ne-|ra- tions. A-|rise O|
 d2 d2 f4 | e2 =d2 c4 | =d3 e f2 f2- | f2 e2 (e=d) d2 | z2 e4 _d2 | (dc) c2 z2 d2- | %29
w: Lord, a- rise|O Lord, a-|rise O Lord, and|* have mer\- * cy,|and have|mer\- * cy, and|
 d2 c2 (cB) B2 | c2 e3 dcB | c2 c2 z2 c2 | c2 c2 d4- | d2 _c2 B2 A2 | (_GF) B4 =A2 | %35
w: * have mer\- * cy,|have mer- cy up- on|Si- on, for|it is time|* that Thou have|mer\- * cy up-|
 B2 B2 z2 (F2- | FG) =A2 B2 c2 | d2 f2 d2 (F2- | FG) _A2 B2 c2 | d2 c2 A3 G | F2 (c3 =d) =e2 | %41
w: on her, yea|* * the time is|come, is come, yea|* * the time is|come, the time is|come, yea * the|
 f3 _e d2 c2 | B2 G2 A4 | %43
w: time is come, the|time is come.|
[Q:1/4=89] (f3[Q:1/4=88] e[Q:1/4=87] d[Q:1/4=87]c[Q:1/4=86] d[Q:1/4=86]=A | %44
w: A\- * * * * *|
[Q:1/4=85] B3[Q:1/4=84] d[Q:1/4=83] c[Q:1/4=83]d[Q:1/4=82] e[Q:1/4=82]=A | %45
w: |
[Q:1/4=80] B4)[Q:1/4=80] c8 |] %46
w: * men.|
V:2
 z8 | z4 z2 E2 | G2 c2 A2 F2 | G6 G2- | G2 F2 (F=E) E2 | z2 !courtesy!_E2 F4 | (GA) B3 B A2 | %7
w: |My|days are gone, are|gone like|* a sha\- * dow,|and I|am * wi- thered like|
 A2 G2 G2 F2 | (F2 =E2) F4 | z4 z2 F2 | D2 F2 B2 B2 | G3 G G2 GG | A3 A =A2 B2 | (B=A)AB (BA)AB | %14
w: grass, am with- ered|like * grass.|But|Thou O Lord, but|Thou O Lord, shalt en-|dure en- dure for|ev\- * er, for ev\- * er, for|
 (B=A) A2 z2 F2 | B3 B B4- | B2 GG G2 A2 | (AG)GA (AG)GA | (F=E) E2 z2 (F2- | FG)AA A2 AE | %20
w: ev\- * er, But|Thou O Lord|* shalt en- dure for|ev\- * er, for ev\- * er, for|ev\- * er, and|* * Thy re- mem- brance thro'-|
 A2 _G2 F2 A2 | !courtesy!=G2 G2 z4 | z4 F2 A2 | _G2 F2 z4 | !courtesy!=G2 B4 A2 | G4 z2 A2- | %26
w: out all ge- ne-|ra- tions.|A- rise|O Lord,|a- rise O|Lord and|
 A2 G2 G2 G2 | z2 G2 (GF) F2 | z2 F4 F2 | (FE) E2 z2 G2 | (FE) A2 A2 G2 | A2 A2 z2 F2 | %32
w: * have mer- cy,|have mer\- * cy,|and have|mer\- * cy, have|mer\- * cy up- on|Si- on, for|
 F2 A2 _G2 F2 | F2 E2 E2 F2 | B,2 _G2 F4 | F2 F2 z4 | z4 z2 (F2- | FG) =A2 B2 D2 | C4 z4 | %39
w: it is time, is|time that Thou have|mer- cy up-|on her,|yea|* * the time is|come,|
 z2 (C3 =D) =E2 | F2 G2 A2 G2 | F6 F2 | F2 =E2 F4 | z2 (F2- FE DC | DE F2) F4- | F2 G2 =A8 |] %46
w: yea * the|time is come, is|come, the|time is come.|A\- * * * *|* * * men,|* A- men.|
V:3
 F4 A2 c2 | f4 e3 d | c2 c2 F4 | B2 d2 d2 c2- | c2 c2 c2 c2 | z2 c4 d2- | dd c3 c f2 | %7
w: My days are|gone like a|sha- dow, my|days are gone like|* a sha- dow,|and I|* am wi- thered like|
 f2 B2 c2 c2 | c4 c2 A2- | A2 AA d2 d2 | f4 z4 | z4 z2 cc | f8- | f6 B2 | f2 f2 z4 | z2 f2 g3 g | %16
w: grass, am wi- thered|like grass. But|* Thou O Lord, O|Lord,|shalt en-|dure,|* for|ev- er,|But Thou O|
 g4 =e2 c2 | c6 c2 | c2 c2 z2 c2- | c2 Ad c2 cB | d2 e2 f2 e2 | e2 e2 z2 c2 | e4 d2 c2 | B4 c4- | %24
w: Lord shalt en-|dure for|ev- er, and|* Thy re- mem- brance thro'-|out all ge- ne-|ra- tions. A-|rise O Lord,|a- rise|
 c2 =d2 e4 | z2 B2 c4- | c2 c2 =d4 | e4 f2 B2 | c4 d4 | e2 e4 d2 | (dc) c2 B2 e2 | e2 e2 z2 A2 | %32
w: * O Lord,|a- rise,|* a- rise|O Lord, a-|rise O|Lord, and have|mer\- * cy up- on|Si- on, for|
 A2 A2 (DE) (FG) | (AB) (=cd) eB d2- | d2 (cB) (d2 c2) | d2 B2 z4 | z2 (F3 G) =A2 | B2 c2 d2 B2 | %38
w: it is time, * is *|time * that * Thou have mer\-|* cy * up\- *|on her,|yea * the|time is come, is|
 f6 f2 | f2 =e2 f2 (c2- | c=d) =e2 f2 c2 | (FG) A2 B2 c2 | d2 c2 c2 (fe | dc B=A) B2 (f2- | %44
w: come, the|time is come, yea|* * the time is|come, * the time is|come, is come. A\- *|* * * * men, A\-|
 fe dB ed c2 | dc B2) f8 |] %46
w: |* * * men.|
V:4
 z4 F,4 | A,2 D2 C4 | C,4 F,2 A,2 | G,3 F, E,2 =E,2- | E,2 F,2 C,2 C,2 | z2 C,2 D,3 D, | %6
w: My|days are gone,|My days are|gone, are gone like|* a sha- dow,|and I am|
 E,3 E, F,4 | B,,2 B,2 B,2 A,2 | C,4 F,4 | z2 D,2 D,3 D, | D6 B,2 | E6 z2 | z8 | z8 | %14
w: wi- thered like|grass, am wi- thered|like grass.|But Thou O|Lord, O|Lord,|||
 z2 F,2 B,3 B, | B,6 G,G, | C8- | C6 F,2 | C,2 C,2 z2 F,2- | F,2 F,D, A,2 A,G, | F,2 E,2 D,2 C,2 | %21
w: But Thou O|Lord shalt en-|dure|* for|ev- er, and|* Thy re- mem- brance thro'-|out all ge- ne-|
 E,2 E,2 A,,2 A,2- | A,2 _G,2 F,4 | B,,2 B,4 A,2 | G,4 C,2 C2- | C2 B,2 A,4 | z2 C4 =B,2 | %27
w: ra- tions. A- rise|* O Lord,|a- rise O|Lord, a- rise|* O Lord,|and have|
 C2 G,2 z2 _B,2- | B,2 =A,2 B,2 F,2 | z2 _A,4 G,2 | A,2 C,2 D,2 E,2 | A,,2 A,,2 z2 F,2 | %32
w: mer- cy, and|* have mer- cy,|and have|mer- cy up- on|Si- on. for|
 F,2 F,,2 B,,2 B,2 | A,2 E,2 _G,2 D,2 | (E,2 B,,2) F,2 F,2 | z2 (B,,3 C,) D,2 | E,2 F,2 B,,2 F,2 | %37
w: it is time that|Thou have mer- cy|up\- * on her,|yea * the|time is come, is|
 B,2 F,2 B,,2- B,,2 | z2 (F,,3 G,, A,,2) | B,,2 C,2 F,,2 C,2 | F,2 C,2 F,,2 z2 | %41
w: come, is come, *|yea * the|time is come, is|come, is come,|
 z2 (F,,3 G,,) A,,2 | B,,2 C,2 F,,2 (F,2- | F,E, D,C, D,=A,, B,,2- | B,,C, D,B,, F,4- | F,4) F,8 |] %46
w: yea * the|time is come. A\-|||* men.|

